;FLAVOR:Marlin
;TIME:1511
;Filament used: 1.39468m
;Layer height: 0.2
;MINX:85.536
;MINY:95.426
;MINZ:0.3
;MAXX:134.894
;MAXY:124.575
;MAXZ:10.65
;Generated with Cura_SteamEngine 4.4.0
M140 S60
M105
M190 S60
M104 S205
M105
M109 S205
M82 ;absolute extrusion mode
M201 X500.00 Y500.00 Z100.00 E5000.00 ;Setup machine max acceleration
M203 X500.00 Y500.00 Z10.00 E50.00 ;Setup machine max feedrate
M204 P500.00 R1000.00 T500.00 ;Setup Print/Retract/Travel acceleration
M205 X8.00 Y8.00 Z0.40 E5.00 ;Setup Jerk
M220 S100 ;Reset Feedrate
M221 S100 ;Reset Flowrate

G28 ;Home

G92 E0 ;Reset Extruder
G1 Z2.0 F3000 ;Move Z Axis up
G1 X10.1 Y20 Z0.28 F5000.0 ;Move to start position
G1 X10.1 Y200.0 Z0.28 F1500.0 E15 ;Draw the first line
G1 X10.4 Y200.0 Z0.28 F5000.0 ;Move to side a little
G1 X10.4 Y20 Z0.28 F1500.0 E30 ;Draw the second line
G92 E0 ;Reset Extruder
G1 Z2.0 F3000 ;Move Z Axis up

G92 E0
G92 E0
G1 F1500 E-6.5
;LAYER_COUNT:47
;LAYER:-6
M107
G0 F12000 X90.671 Y100.242 Z0.3
;TYPE:SUPPORT-INTERFACE
G1 F1500 E0
G1 F1800 X91.168 Y99.792 E0.0669
G1 X91.828 Y99.256 E0.15173
G1 X92.298 Y98.915 E0.20967
G1 X92.663 Y98.672 E0.25343
G1 X93.023 Y98.448 E0.29573
G1 X93.655 Y98.083 E0.36856
G1 X94.353 Y97.74 E0.44616
G1 X94.759 Y97.561 E0.49043
G1 X95.157 Y97.401 E0.53323
G1 X95.616 Y97.234 E0.58197
G1 X96.072 Y97.086 E0.62981
G1 X96.482 Y96.971 E0.67229
G1 X97.195 Y96.796 E0.74555
G1 X97.195 Y96.805 E0.74645
G1 X97.988 Y96.653 E0.82701
G1 X98.404 Y96.596 E0.86891
G1 X98.906 Y96.544 E0.91927
G1 X99.274 Y96.52 E0.95607
G1 X99.812 Y96.504 E1.00977
G1 X100.284 Y96.507 E1.05687
G1 X101.183 Y96.556 E1.1467
G1 X101.935 Y96.64 E1.22221
G1 X102.275 Y96.697 E1.2566
G1 X103.048 Y96.853 E1.33529
G1 X103.956 Y97.097 E1.4291
G1 X104.402 Y97.24 E1.47584
G1 X104.952 Y97.443 E1.53434
G1 X105.249 Y97.565 E1.56637
G1 X105.535 Y97.688 E1.59744
G1 X105.88 Y97.85 E1.63547
G1 X106.085 Y97.962 E1.65878
G1 X106.666 Y98.263 E1.72407
G1 X106.937 Y98.422 E1.75542
G1 X107.757 Y98.954 E1.85295
G1 X108.127 Y99.224 E1.89865
G1 X108.941 Y99.844 E2.00075
G1 X109.504 Y100.219 E2.06825
G1 X110.342 Y100.609 E2.16048
G1 X110.549 Y100.684 E2.18244
G1 X110.898 Y100.824 E2.21997
G1 X111.181 Y100.958 E2.25121
G1 X111.443 Y101.103 E2.28109
G1 X111.664 Y101.245 E2.3073
G1 X112.046 Y101.524 E2.3545
G1 X112.61 Y101.885 E2.42132
G1 X113.227 Y102.178 E2.48947
G1 X113.876 Y102.39 E2.55759
G1 X114.546 Y102.52 E2.62569
G1 X115.215 Y102.562 E2.69258
G1 X129.171 Y102.568 E4.08511
G1 X129.56 Y102.593 E4.12401
G1 X129.834 Y102.627 E4.15156
G1 X130.139 Y102.686 E4.18256
G1 X130.413 Y102.757 E4.2108
G1 X130.679 Y102.844 E4.23872
G1 X130.96 Y102.956 E4.26891
G1 X131.21 Y103.075 E4.29653
G1 X131.492 Y103.231 E4.32869
G1 X131.692 Y103.36 E4.35244
G1 X131.961 Y103.559 E4.38582
G1 X132.428 Y103.965 E4.44757
G1 X132.535 Y104.08 E4.46324
G1 X132.788 Y104.368 E4.50149
G1 X132.955 Y104.583 E4.52866
G1 X133.111 Y104.814 E4.55647
G1 X133.269 Y105.082 E4.58751
G1 X133.401 Y105.341 E4.61652
G1 X133.504 Y105.58 E4.64249
G1 X133.611 Y105.878 E4.67408
G1 X133.691 Y106.157 E4.70304
G1 X133.747 Y106.418 E4.72968
G1 X133.795 Y106.738 E4.76196
G1 X133.831 Y107.199 E4.8081
G1 X133.838 Y107.384 E4.82657
G1 X133.834 Y112.766 E5.36359
G1 X133.811 Y113.137 E5.40068
G1 X133.773 Y113.444 E5.43155
G1 X133.72 Y113.72 E5.45959
G1 X133.642 Y114.019 E5.49042
G1 X133.558 Y114.277 E5.5175
G1 X133.447 Y114.556 E5.54746
G1 X133.325 Y114.814 E5.57593
G1 X133.181 Y115.073 E5.6055
G1 X133.042 Y115.292 E5.63139
G1 X132.844 Y115.558 E5.66447
G1 X132.54 Y115.912 E5.71103
G1 X132.423 Y116.04 E5.72834
G1 X132.329 Y116.127 E5.74112
G1 X132.036 Y116.384 E5.78
G1 X131.819 Y116.553 E5.80745
G1 X131.588 Y116.709 E5.83526
G1 X131.32 Y116.867 E5.8663
G1 X131.063 Y116.997 E5.89504
G1 X130.794 Y117.112 E5.92423
G1 X130.537 Y117.205 E5.9515
G1 X130.245 Y117.289 E5.98182
G1 X129.984 Y117.345 E6.00846
G1 X129.664 Y117.393 E6.04074
G1 X129.196 Y117.429 E6.08758
G1 X129.004 Y117.436 E6.10675
G1 X115.203 Y117.436 E7.48382
G1 X114.535 Y117.478 E7.5506
G1 X113.864 Y117.607 E7.61878
G1 X113.215 Y117.82 E7.68694
G1 X112.596 Y118.113 E7.75527
G1 X111.942 Y118.542 E7.83331
G1 X111.742 Y118.694 E7.85838
G1 X111.519 Y118.844 E7.8852
G1 X111.263 Y118.993 E7.91475
G1 X110.985 Y119.131 E7.94572
G1 X110.603 Y119.29 E7.98701
G1 X110.395 Y119.368 E8.00917
G1 X109.782 Y119.642 E8.07617
G1 X109.14 Y120.042 E8.15164
G1 X107.699 Y121.083 E8.32902
G1 X107.237 Y121.392 E8.38448
G1 X106.865 Y121.619 E8.42797
G1 X106.555 Y121.796 E8.46358
G1 X106.234 Y121.97 E8.50002
G1 X106.008 Y122.084 E8.52527
G1 X105.443 Y122.352 E8.58767
G1 X105.153 Y122.477 E8.61918
G1 X104.824 Y122.605 E8.6544
G1 X104.339 Y122.78 E8.70585
G1 X103.796 Y122.954 E8.76275
G1 X103.427 Y123.056 E8.80095
G1 X103.006 Y123.159 E8.84419
G1 X102.511 Y123.261 E8.89462
G1 X101.757 Y123.383 E8.97083
G1 X101.49 Y123.413 E8.99764
G1 X100.875 Y123.467 E9.05924
G1 X100.597 Y123.482 E9.08702
G1 X100.101 Y123.496 E9.13653
G1 X99.707 Y123.495 E9.17585
G1 X98.783 Y123.443 E9.26819
G1 X98.324 Y123.394 E9.31425
G1 X97.763 Y123.311 E9.37084
G1 X97.414 Y123.242 E9.40633
G1 X96.83 Y123.117 E9.46593
G1 X96.434 Y123.016 E9.5067
G1 X95.951 Y122.877 E9.55685
G1 X95.757 Y122.815 E9.57718
G1 X95.108 Y122.579 E9.64608
G1 X94.56 Y122.355 E9.70515
G1 X94.277 Y122.229 E9.73606
G1 X93.815 Y121.997 E9.78765
G1 X93.319 Y121.727 E9.844
G1 X92.816 Y121.426 E9.90249
G1 X92.576 Y121.271 E9.93099
G1 X91.924 Y120.815 E10.01038
G1 X91.746 Y120.679 E10.03273
G1 X91.086 Y120.135 E10.11808
G1 X90.719 Y119.804 E10.16739
G1 X90.377 Y119.468 E10.21523
G1 X90.053 Y119.125 E10.26231
G1 X89.733 Y118.762 E10.31059
G1 X89.571 Y118.566 E10.33596
G1 X89.577 Y118.562 E10.33668
G1 X89.012 Y117.84 E10.42816
G1 X88.825 Y117.566 E10.46126
G1 X88.386 Y116.875 E10.54295
G1 X88.183 Y116.522 E10.58358
G1 X87.951 Y116.084 E10.63304
G1 X87.74 Y115.656 E10.68065
G1 X87.598 Y115.337 E10.71549
G1 X87.38 Y114.791 E10.77415
G1 X87.197 Y114.276 E10.82869
G1 X86.969 Y113.523 E10.90719
G1 X86.907 Y113.285 E10.93173
G1 X86.735 Y112.508 E11.01114
G1 X86.66 Y112.072 E11.05528
G1 X86.596 Y111.597 E11.1031
G1 X86.547 Y111.085 E11.15443
G1 X86.513 Y110.529 E11.21001
G1 X86.505 Y109.692 E11.29353
G1 X86.526 Y109.182 E11.34446
G1 X86.588 Y108.487 E11.41408
G1 X86.665 Y107.908 E11.47236
G1 X86.702 Y107.69 E11.49443
G1 X86.862 Y106.92 E11.5729
G1 X86.858 Y106.92 E11.5733
G1 X86.867 Y106.879 E11.57748
G1 X86.962 Y106.5 E11.61647
G1 X87.1 Y106.025 E11.66583
G1 X87.258 Y105.545 E11.71625
G1 X87.373 Y105.232 E11.74952
G1 X87.504 Y104.894 E11.78569
G1 X87.589 Y104.691 E11.80765
G1 X87.802 Y104.215 E11.85969
G1 X87.993 Y103.829 E11.90266
G1 X88.184 Y103.474 E11.94288
G1 X88.732 Y102.569 E12.04845
G1 X88.998 Y102.18 E12.09547
G1 X89.255 Y101.83 E12.1388
G1 X89.507 Y101.513 E12.1792
G1 X89.906 Y101.04 E12.24095
G1 X90.104 Y100.822 E12.27033
G1 X90.671 Y100.242 E12.35127
G0 F12000 X91.2 Y99.766
G1 F1800 X91.2 Y120.228 E14.39297
G0 F12000 X92.8 Y121.415
G1 F1800 X92.8 Y98.586 E16.67086
G0 F12000 X94.4 Y97.719
G1 F1800 X94.4 Y122.283 E19.12187
G0 F12000 X96 Y122.891
G1 F1800 X96 Y97.109 E21.6944
G0 F12000 X97.6 Y96.727
G1 F1800 X97.6 Y123.278 E24.34367
G0 F12000 X99.2 Y123.466
G1 F1800 X99.2 Y96.524 E27.03196
G0 F12000 X100.8 Y96.536
G1 F1800 X100.8 Y123.472 E29.71964
G0 F12000 X102.4 Y123.279
G1 F1800 X102.4 Y96.723 E32.36941
G0 F12000 X104 Y97.112
G1 F1800 X104 Y122.889 E34.94145
G0 F12000 X105.6 Y122.278
G1 F1800 X105.6 Y97.719 E37.39196
G0 F12000 X107.2 Y98.593
G1 F1800 X107.2 Y121.415 E39.66915
G0 F12000 X108.8 Y120.288
G1 F1800 X108.8 Y99.737 E41.71973
G0 F12000 X110.4 Y100.631
G1 F1800 X110.4 Y119.367 E43.58922
G0 F12000 X112 Y118.504
G1 F1800 X112 Y101.491 E45.28678
G0 F12000 X113.6 Y102.3
G1 F1800 X113.6 Y117.694 E46.8228
G0 F12000 X115.2 Y117.437
G1 F1800 X115.2 Y102.562 E48.30704
G0 F12000 X116.8 Y102.563
G1 F1800 X116.8 Y117.436 E49.79107
G0 F12000 X118.4 Y117.436
G1 F1800 X118.4 Y102.564 E51.275
G0 F12000 X120 Y102.565
G1 F1800 X120 Y117.436 E52.75884
G0 F12000 X121.6 Y117.436
G1 F1800 X121.6 Y102.565 E54.24267
G0 F12000 X123.2 Y102.566
G1 F1800 X123.2 Y117.436 E55.72641
G0 F12000 X124.8 Y117.436
G1 F1800 X124.8 Y102.567 E57.21004
G0 F12000 X126.4 Y102.567
G1 F1800 X126.4 Y117.436 E58.69368
G0 F12000 X128 Y117.436
G1 F1800 X128 Y102.568 E60.17721
G0 F12000 X129.6 Y102.598
G1 F1800 X129.6 Y117.398 E61.65396
G0 F12000 X131.2 Y116.928
G1 F1800 X131.2 Y103.071 E63.03662
G0 F12000 X132.8 Y104.384
G1 F1800 X132.8 Y115.61 E64.15675
G1 F1500 E57.65675
G0 F12000 X133.34 Y116.614
G0 X132.446 Y117.413
G0 X131.516 Y117.962
G0 X130.509 Y118.32
G0 X102.151 Y124.402
G0 X99.812 Y124.575
G0 X97.583 Y124.361
G0 X96.234 Y124.087
G0 X94.26 Y123.383
G0 X92.767 Y122.637
G0 X91.067 Y121.498
G0 X89.897 Y120.462
G0 X88.922 Y119.451
G0 X89.6 Y118.601
G1 F1500 E64.15675
G1 F1800 X89.6 Y101.402 E65.87288
G0 F12000 X88 Y103.815
G1 F1800 X88 Y116.176 E67.10626
G0 F300 X88 Y116.176 Z0.6
G0 F12000 X88.183 Y116.521
;TIME_ELAPSED:32.385059
;LAYER:-5
M140 S60
;TYPE:SUPPORT
G1 F1800 X88.386 Y116.874 E67.14689
G1 X88.825 Y117.564 E67.2285
G1 X89.012 Y117.839 E67.26168
G1 X89.576 Y118.561 E67.35309
G1 X89.571 Y118.565 E67.35373
G1 X89.733 Y118.761 E67.37911
G1 X90.052 Y119.124 E67.42732
G1 X90.376 Y119.467 E67.4744
G1 X90.718 Y119.803 E67.52224
G1 X91.085 Y120.133 E67.57149
G1 X91.746 Y120.678 E67.65697
G1 X91.923 Y120.814 E67.67924
G1 X92.575 Y121.27 E67.75863
G1 X92.815 Y121.425 E67.78714
G1 X93.319 Y121.726 E67.84572
G1 X93.588 Y121.872 E67.87626
G1 X88.121 Y116.406 E68.64764
G1 X87.95 Y116.083 E68.6841
G1 X87.739 Y115.655 E68.73172
G1 X87.597 Y115.336 E68.76656
G1 X87.38 Y114.79 E68.82518
G1 X87.196 Y114.274 E68.87985
G1 X87.106 Y113.976 E68.91091
G1 X96.027 Y122.897 E70.16976
G1 X96.433 Y123.015 E70.21194
G1 X96.83 Y123.116 E70.25282
G1 X97.413 Y123.241 E70.31231
G1 X97.762 Y123.31 E70.34781
G1 X97.869 Y123.325 E70.35859
G1 X86.669 Y112.125 E71.93903
G1 X86.66 Y112.07 E71.94459
G1 X86.595 Y111.596 E71.99233
G1 X86.547 Y111.083 E72.04374
G1 X86.514 Y110.556 E72.09643
G1 X99.436 Y123.478 E73.91986
G1 X99.707 Y123.494 E73.94695
G1 X100.1 Y123.494 E73.98616
G1 X100.596 Y123.481 E74.03567
G1 X100.839 Y123.467 E74.05996
G1 X86.527 Y109.155 E76.07954
G1 X86.588 Y108.485 E76.14667
G1 X86.664 Y107.907 E76.20484
G1 X86.668 Y107.881 E76.20746
G1 X102.111 Y123.324 E78.38664
G1 X102.51 Y123.26 E78.42696
G1 X103.005 Y123.158 E78.47739
G1 X103.289 Y123.088 E78.50657
G1 X86.909 Y106.708 E80.81797
G1 X86.962 Y106.499 E80.83948
G1 X87.099 Y106.023 E80.8889
G1 X87.233 Y105.618 E80.93147
G1 X104.379 Y122.764 E83.35096
G1 X104.823 Y122.604 E83.39805
G1 X105.153 Y122.475 E83.4334
G1 X105.399 Y122.369 E83.46013
G1 X87.628 Y104.599 E85.96774
G1 X87.802 Y104.214 E86.00989
G1 X87.993 Y103.828 E86.05287
G1 X88.089 Y103.646 E86.0734
G1 X106.349 Y121.905 E88.65001
G1 X106.554 Y121.795 E88.67322
G1 X106.865 Y121.618 E88.70893
G1 X107.236 Y121.391 E88.75233
G1 X107.244 Y121.386 E88.75327
G1 X88.616 Y102.758 E91.38188
G1 X88.732 Y102.568 E91.40409
G1 X88.997 Y102.179 E91.45106
G1 X89.189 Y101.917 E91.48347
G1 X108.079 Y120.807 E94.14905
G1 X108.9 Y120.213 E94.25017
G1 X89.823 Y101.136 E96.94214
G1 X89.906 Y101.039 E96.95487
G1 X90.104 Y100.821 E96.98426
G1 X90.507 Y100.407 E97.04191
G1 X109.757 Y119.656 E99.75822
G1 X109.781 Y119.641 E99.76104
G1 X110.394 Y119.366 E99.82808
G1 X110.602 Y119.288 E99.85025
G1 X110.744 Y119.229 E99.86559
G1 X91.245 Y99.73 E102.61711
G1 X91.827 Y99.255 E102.69207
G1 X92.034 Y99.105 E102.71758
G1 X111.669 Y118.74 E105.48829
G1 X111.741 Y118.692 E105.49692
G1 X111.942 Y118.54 E105.52207
G1 X112.51 Y118.167 E105.58987
G1 X92.879 Y98.536 E108.36002
G1 X93.022 Y98.447 E108.37682
G1 X93.654 Y98.082 E108.44965
G1 X93.779 Y98.021 E108.46352
G1 X113.487 Y117.729 E111.24454
G1 X113.863 Y117.605 E111.28404
G1 X114.534 Y117.477 E111.3522
G1 X114.641 Y117.47 E111.3629
G1 X94.74 Y97.568 E114.17122
G1 X94.758 Y97.56 E114.17318
G1 X95.157 Y97.4 E114.21608
G1 X95.615 Y97.233 E114.26472
G1 X95.769 Y97.184 E114.28084
G1 X116.02 Y117.434 E117.13841
G1 X117.434 Y117.434 E117.2795
G1 X96.874 Y96.874 E120.18074
G1 X97.194 Y96.795 E120.21362
G1 X97.193 Y96.805 E120.21463
G1 X97.986 Y96.653 E120.29519
G1 X98.058 Y96.643 E120.30245
G1 X118.849 Y117.434 E123.23628
G1 X120.263 Y117.434 E123.37737
G1 X99.346 Y96.517 E126.32898
G1 X99.811 Y96.503 E126.3754
G1 X100.283 Y96.507 E126.4225
G1 X100.776 Y96.534 E126.47177
G1 X121.677 Y117.434 E129.42105
G1 X123.092 Y117.435 E129.56224
G1 X102.374 Y96.717 E132.48578
G1 X103.047 Y96.853 E132.55429
G1 X103.955 Y97.096 E132.64808
G1 X104.268 Y97.197 E132.68089
G1 X124.506 Y117.435 E135.53669
G1 X125.92 Y117.435 E135.67778
G1 X106.865 Y98.38 E138.36665
G1 X106.936 Y98.421 E138.37483
G1 X107.756 Y98.953 E138.47236
G1 X108.126 Y99.224 E138.51812
G1 X108.94 Y99.844 E138.62022
G1 X109.503 Y100.218 E138.68766
G1 X110.341 Y100.608 E138.77989
G1 X110.548 Y100.684 E138.80189
G1 X110.607 Y100.708 E138.80825
G1 X127.335 Y117.435 E141.16868
G1 X128.749 Y117.435 E141.30977
G1 X113.621 Y102.307 E143.44449
G1 X113.875 Y102.39 E143.47116
G1 X114.544 Y102.519 E143.53914
G1 X115.214 Y102.561 E143.60612
G1 X115.29 Y102.562 E143.61371
G1 X130.056 Y117.328 E145.69735
G1 X130.244 Y117.288 E145.71653
G1 X130.536 Y117.205 E145.74682
G1 X130.793 Y117.112 E145.77409
G1 X131.062 Y116.996 E145.80332
G1 X131.112 Y116.97 E145.80894
G1 X116.704 Y102.562 E147.84207
G1 X118.119 Y102.563 E147.98326
G1 X131.981 Y116.425 E149.93933
G1 X132.035 Y116.384 E149.9461
G1 X132.327 Y116.126 E149.98498
G1 X132.422 Y116.039 E149.99783
G1 X132.539 Y115.912 E150.01506
G1 X132.698 Y115.727 E150.0394
G1 X119.534 Y102.563 E151.89698
G1 X120.949 Y102.564 E152.03817
G1 X133.279 Y114.894 E153.77807
G1 X133.324 Y114.813 E153.78732
G1 X133.445 Y114.556 E153.81566
G1 X133.556 Y114.276 E153.84571
G1 X133.641 Y114.018 E153.87282
G1 X133.677 Y113.878 E153.88724
G1 X122.364 Y102.565 E155.48363
G1 X123.779 Y102.565 E155.62482
G1 X133.834 Y112.62 E157.04369
G1 X133.834 Y111.207 E157.18468
G1 X125.193 Y102.566 E158.40401
G1 X126.608 Y102.567 E158.5452
G1 X133.835 Y109.793 E159.56494
G1 X133.836 Y108.381 E159.70583
G1 X128.023 Y102.567 E160.52618
G1 X129.17 Y102.567 E160.64063
G1 X129.456 Y102.586 E160.66923
G1 X133.81 Y106.94 E161.28362
G1 X133.794 Y106.737 E161.30394
G1 X133.746 Y106.418 E161.33613
G1 X133.69 Y106.157 E161.36277
G1 X133.61 Y105.877 E161.39182
G1 X133.503 Y105.579 E161.42342
G1 X133.4 Y105.341 E161.44929
G1 X133.268 Y105.081 E161.47839
G1 X133.129 Y104.844 E161.5058
G1 X131.559 Y103.275 E161.72727
G1 X131.69 Y103.359 E161.7428
G1 X131.96 Y103.558 E161.77627
G1 X132.427 Y103.965 E161.83808
G1 X132.534 Y104.08 E161.85375
G1 X132.786 Y104.368 E161.89194
G1 X132.954 Y104.582 E161.91909
G1 X133.11 Y104.813 E161.9469
G1 F1500 E155.4469
G0 F300 X133.11 Y104.813 Z0.8
G0 F12000 X133.815 Y103.956
G0 X133.037 Y103.08
G0 X132.027 Y102.31
G0 X131.042 Y101.843
G0 X130.452 Y101.692
G0 X102.096 Y95.588
G0 X101.587 Y96.4
;TIME_ELAPSED:67.558057
;LAYER:-4
;TYPE:SUPPORT-INTERFACE
G1 F1500 E161.9469
G1 F2400 X98.356 Y96.4 E162.05436
G1 X98.871 Y96.347 E162.07158
G1 X99.087 Y96.33 E162.07879
G1 X99.81 Y96.304 E162.10285
G1 X100.015 Y96.303 E162.10967
G1 X100.711 Y96.325 E162.13283
G1 X101.198 Y96.357 E162.14906
G1 F1500 E155.64906
G0 F12000 X101.049 Y95.479
G0 X99.442 Y95.437
G0 X98.228 Y95.542
G0 X98.356 Y96.4
G1 F1500 E162.14906
G1 F2400 X98.336 Y96.402 E162.14973
G1 X97.933 Y96.459 E162.16327
G1 X97.395 Y96.56 E162.18147
G1 X97.123 Y96.607 E162.19065
G1 X96.929 Y96.651 E162.19727
G1 X96.385 Y96.79 E162.21595
